public/Icons/studentLife.svg

<svg id="Layer_1" data-name="Layer 1" xmlns="http://www.w3.org/2000/svg" viewBox="0 0 70 70"><defs><style>.cls-1{fill:#00274c;}.cls-2{fill:#ffcb05;}.cls-3{fill:#fff;}</style></defs><rect class="cls-1" width="70" height="70"/><g id="svg_1" data-name="svg 1"><g id="svg_2" data-name="svg 2"><path id="svg_3" data-name="svg 3" class="cls-2" d="M34.93114,39.01708l-11.63-16.05873V34.63857h4.65226V46.1723H6.43838V34.63857h4.361V16.67981h-4.361V5.14516h16.9l11.64975,16.205,11.67474-16.205H63.56162V16.67981h-4.3615V34.63857h4.3615V46.1723H42.04787V34.63857h4.65088V22.95835Z" transform="translate(0 0.54286)"/></g></g><path class="cls-3" d="M6.16307,55.33762v-.24609a1.72686,1.72686,0,0,0-.16406-.92578.67677.67677,0,0,0-.61328-.26953.81617.81617,0,0,0-.65039.249,1.12163,1.12163,0,0,0-.21485.74707.9345.9345,0,0,0,.25782.66211,2.893,2.893,0,0,0,.88867.57422,5.60057,5.60057,0,0,1,1.76172,1.166,2.01915,2.01915,0,0,1,.50586,1.39453,2.45829,2.45829,0,0,1-.64844,1.86035,2.71746,2.71746,0,0,1-1.94531.61816A2.90134,2.90134,0,0,1,3.334,60.614a2.38889,2.38889,0,0,1-.58838-1.80762v-.32226H4.415v.24609a1.4163,1.4163,0,0,0,.21875.89649.8352.8352,0,0,0,.70507.29883.8518.8518,0,0,0,.68946-.26954,1.2355,1.2355,0,0,0,.22851-.81445.97854.97854,0,0,0-.27929-.69726,3.3194,3.3194,0,0,0-.9668-.6211A5.20278,5.20278,0,0,1,3.32518,56.404a1.965,1.965,0,0,1-.48291-1.35351,2.33245,2.33245,0,0,1,.647-1.79883A2.78333,2.78333,0,0,1,5.43651,52.654a2.59917,2.59917,0,0,1,1.88672.55664A2.35562,2.35562,0,0,1,7.831,54.90989l.00195.18164v.24609Z" transform="translate(0 0.54286)"/><path class="cls-3" d="M10.70018,54.00755H8.91893V52.77708H14.1743v1.23047H12.39305v7.03711H10.70018Z" transform="translate(0 0.54286)"/><path class="cls-3" d="M20.38524,58.72434a2.42876,2.42876,0,0,1-.63574,1.834,2.66017,2.66017,0,0,1-1.90723.60937,2.66017,2.66017,0,0,1-1.90723-.60937,2.4288,2.4288,0,0,1-.63574-1.834V52.77708h1.67578v6.05859a1.43749,1.43749,0,0,0,.19043.8584.81412.81412,0,0,0,.67676.24316.81411.81411,0,0,0,.67676-.24316,1.43749,1.43749,0,0,0,.19043-.8584V52.77708h1.67578Z" transform="translate(0 0.54286)"/><path class="cls-3" d="M21.99071,52.77708h2.22656a3.30617,3.30617,0,0,1,2.27344.62988,2.76943,2.76943,0,0,1,.67969,2.10645v2.31445a3.918,3.918,0,0,1-.59473,2.54,2.96829,2.96829,0,0,1-2.26465.67676H21.99071Zm1.69336,7.02539h.44531a1.37447,1.37447,0,0,0,1.07227-.3252,2.04054,2.04054,0,0,0,.27539-1.25683V55.49a1.65854,1.65854,0,0,0-.30762-1.1543,1.56022,1.56022,0,0,0-1.12793-.3164h-.35742Z" transform="translate(0 0.54286)"/><path class="cls-3" d="M28.6118,61.04466V52.77708h4.13086v1.23047h-2.4375v2.18554h2.35547v1.23047H30.30516v2.39063h2.48438v1.23047Z" transform="translate(0 0.54286)"/><path class="cls-3" d="M35.55516,61.04466H34.16649V52.77708h2.49023l1.42969,6.97851V52.77708h1.38867v8.26758H36.99657l-1.44141-7.03711Z" transform="translate(0 0.54286)"/><path class="cls-3" d="M42.34618,54.00755H40.56493V52.77708h5.25586v1.23047H44.03954v7.03711H42.34618Z" transform="translate(0 0.54286)"/><path class="cls-3" d="M49.66454,61.04466V52.77708H51.3579v7.03711h2.15039v1.23047Z" transform="translate(0 0.54286)"/><path class="cls-3" d="M54.645,52.77708h1.69335v8.26758H54.645Z" transform="translate(0 0.54286)"/><path class="cls-3" d="M57.80907,61.04466V52.77708H61.77v1.23047H59.50243v2.25H61.647V57.488H59.50243v3.55664H57.80907Z" transform="translate(0 0.54286)"/><path class="cls-3" d="M63.12938,61.04466V52.77708h4.13086v1.23047h-2.4375v2.18554h2.35547v1.23047H64.82274v2.39063h2.48437v1.23047Z" transform="translate(0 0.54286)"/></svg>

<svg id="Layer_1" data-name="Layer 1" xmlns="http://www.w3.org/2000/svg" viewBox="0 0 70 70"><defs><style>.cls-3{fill:#fff}</style></defs><path fill="#00274c" d="M0 0h70v70H0z"/><g id="svg_1" data-name="svg 1"><g id="svg_2" data-name="svg 2"><path id="svg_3" data-name="svg 3" d="M34.931 39.017l-11.63-16.059v11.68h4.652v11.534H6.438V34.64H10.8v-17.96H6.44V5.146h16.9l11.65 16.205L46.662 5.145h16.899V16.68H59.2v17.959h4.362v11.533H42.048V34.64h4.65v-11.68z" transform="translate(0 .543)" fill="#ffcb05"/></g></g><path class="cls-3" d="M6.163 55.338v-.246A1.727 1.727 0 006 54.166a.677.677 0 00-.613-.27.816.816 0 00-.65.25 1.122 1.122 0 00-.216.746.934.934 0 00.258.662 2.893 2.893 0 00.889.575 5.6 5.6 0 011.762 1.166 2.02 2.02 0 01.506 1.394 2.458 2.458 0 01-.649 1.86 2.717 2.717 0 01-1.945.619 2.901 2.901 0 01-2.007-.554 2.389 2.389 0 01-.588-1.808v-.322h1.669v.246a1.416 1.416 0 00.219.897.835.835 0 00.705.299.852.852 0 00.69-.27 1.236 1.236 0 00.228-.814.979.979 0 00-.28-.698 3.32 3.32 0 00-.966-.62 5.203 5.203 0 01-1.686-1.12 1.965 1.965 0 01-.483-1.354 2.332 2.332 0 01.647-1.798 2.783 2.783 0 011.948-.598 2.6 2.6 0 011.886.557 2.356 2.356 0 01.508 1.699l.002.182v.246zM10.7 54.008H8.92v-1.23h5.255v1.23h-1.78v7.037H10.7zM20.385 58.724a2.429 2.429 0 01-.636 1.834 2.66 2.66 0 01-1.907.61 2.66 2.66 0 01-1.907-.61 2.429 2.429 0 01-.636-1.834v-5.947h1.676v6.059a1.437 1.437 0 00.19.858.814.814 0 00.677.243.814.814 0 00.677-.243 1.437 1.437 0 00.19-.858v-6.059h1.676zM21.99 52.777h2.227a3.306 3.306 0 012.274.63 2.77 2.77 0 01.68 2.106v2.315a3.918 3.918 0 01-.595 2.54 2.968 2.968 0 01-2.265.677h-2.32zm1.694 7.025h.445a1.374 1.374 0 001.073-.325 2.04 2.04 0 00.275-1.257v-2.73a1.659 1.659 0 00-.308-1.154 1.56 1.56 0 00-1.128-.317h-.357zM28.612 61.045v-8.268h4.13v1.23h-2.437v2.186h2.356v1.23h-2.356v2.391h2.485v1.23zM35.555 61.045h-1.389v-8.268h2.49l1.43 6.979v-6.979h1.39v8.268h-2.48l-1.44-7.037zM42.346 54.008h-1.781v-1.23h5.256v1.23H44.04v7.037h-1.694zM49.665 61.045v-8.268h1.693v7.037h2.15v1.23zM54.645 52.777h1.693v8.268h-1.693zM57.81 61.045v-8.268h3.96v1.23h-2.268v2.25h2.145v1.231h-2.145v3.557H57.81zM63.13 61.045v-8.268h4.13v1.23h-2.437v2.186h2.355v1.23h-2.355v2.391h2.484v1.23z" transform="translate(0 .543)"/></svg>
